build/img/landscaping.svg

<svg width="83" height="60" viewBox="0 0 83 60" fill="#686868" xmlns="http://www.w3.org/2000/svg">
<path d="M81.6555 57.3134H72.9611V45.5486C76.2246 44.9509 78.6976 42.2225 78.6976 38.9552C78.6976 37.3023 78.0358 33.1852 76.9665 29.4165C75.4327 24.0104 73.7329 21.4925 71.6166 21.4925C69.5004 21.4925 67.8006 24.0104 66.2668 29.4165C65.1975 33.1852 64.5356 37.3023 64.5356 38.9552C64.5356 42.2226 67.0086 44.9511 70.2721 45.5486V57.3134H61.4881V23.9581C63.1535 23.3961 64.3564 21.8214 64.3564 19.9701V14.2388C64.3564 13.497 63.7546 12.8955 63.0119 12.8955H61.4881V11.2836H64.446C65.1887 11.2836 65.7905 10.6821 65.7905 9.9403C65.7905 9.19845 65.1887 8.59702 64.446 8.59702H55.8413C55.0986 8.59702 54.4968 9.19845 54.4968 9.9403C54.4968 10.6821 55.0986 11.2836 55.8413 11.2836H58.7991V12.8955H57.2754C56.5327 12.8955 55.9309 13.497 55.9309 14.2388V19.9701C55.9309 21.8214 57.1338 23.3961 58.7991 23.9581V57.3134H54.0984L53.1849 52.8358H54.4069C55.1496 52.8358 55.7514 52.2344 55.7514 51.4925C55.7514 50.7507 55.1496 50.1493 54.4069 50.1493H51.5504C51.5444 50.1493 51.5385 50.1493 51.5324 50.1493H51.4492V47.1045H52.973C53.7157 47.1045 54.3175 46.503 54.3175 45.7612C54.3175 45.0193 53.7157 44.4179 52.973 44.4179H51.4492V42.806H52.973C53.7157 42.806 54.3175 42.2045 54.3175 41.4627C54.3175 40.7208 53.7157 40.1194 52.973 40.1194H27.1587C26.416 40.1194 25.8143 40.7208 25.8143 41.4627C25.8143 42.2045 26.416 42.806 27.1587 42.806H28.6825V44.4179H27.1587C26.416 44.4179 25.8143 45.0193 25.8143 45.7612C25.8143 46.503 26.416 47.1045 27.1587 47.1045H28.6825V50.1493H28.5979C28.5929 50.1493 28.588 50.1493 28.583 50.1493H25.7246C24.9819 50.1493 24.3801 50.7507 24.3801 51.4925C24.3801 52.2344 24.9819 52.8358 25.7246 52.8358H26.9467L26.0331 57.3134H15.5961V44.1568C21.2412 43.4898 25.635 38.6821 25.635 32.8657C25.635 22.7747 15.8862 1.67122 15.4712 0.777851C15.2508 0.303403 14.7751 0 14.2516 0C13.7282 0 13.2524 0.303403 13.0321 0.777851C12.6171 1.67122 2.86825 22.7747 2.86825 32.8657C2.86825 38.6821 7.26205 43.4898 12.9071 44.1568V57.3134H1.34449C0.601795 57.3134 0 57.9149 0 58.6567C0 59.3986 0.601795 60 1.34449 60H81.6555C82.3982 60 83 59.3986 83 58.6567C83 57.9149 82.3982 57.3134 81.6555 57.3134ZM67.2246 38.9552C67.2246 37.7574 67.7513 34.1728 68.7398 30.5586C70.1777 25.3014 71.3863 24.3365 71.6166 24.1958C71.847 24.3365 73.0554 25.3014 74.4935 30.5586C75.4821 34.173 76.0086 37.7574 76.0086 38.9552C76.0086 40.7472 74.7271 42.2688 72.9611 42.7911V40.0299C72.9611 39.288 72.3593 38.6866 71.6166 38.6866C70.8739 38.6866 70.2721 39.288 70.2721 40.0299V42.7911C68.5062 42.2688 67.2246 40.7472 67.2246 38.9552ZM58.6199 15.5821H61.6674V19.9701C61.6674 20.8096 60.9838 21.4925 60.1436 21.4925C59.3034 21.4925 58.6199 20.8096 58.6199 19.9701V15.5821ZM5.55724 32.8657C5.55724 25.4101 11.6019 10.7226 14.2516 4.64257C16.9013 10.7226 22.946 25.4101 22.946 32.8657C22.946 37.1987 19.754 40.8004 15.5961 41.448V33.4221L19.5048 29.517C20.0299 28.9924 20.0299 28.1418 19.5048 27.6174C18.9796 27.0928 18.1284 27.0928 17.6033 27.6174L15.5961 29.6226V27.1343C15.5961 26.3925 14.9943 25.791 14.2516 25.791C13.5089 25.791 12.9071 26.3925 12.9071 27.1343V33.9211L10.9001 31.9159C10.3748 31.3913 9.52367 31.3913 8.9986 31.9159C8.47353 32.4405 8.47353 33.291 8.9986 33.8155L12.9071 37.7207V41.448C8.74924 40.8004 5.55724 37.1987 5.55724 32.8657ZM31.3715 42.806H48.7603V44.4179H31.3715V42.806ZM31.3715 47.1045H48.7603V50.1493H31.3715V47.1045ZM29.6909 52.8358H50.4409L51.3542 57.3134H28.7775L29.6909 52.8358Z"/>
</svg>

<svg width="83" height="60" fill="#686868" xmlns="http://www.w3.org/2000/svg"><path d="M81.656 57.313H72.96V45.55c3.264-.598 5.737-3.327 5.737-6.594 0-1.653-.662-5.77-1.731-9.538-1.534-5.407-3.234-7.925-5.35-7.925-2.117 0-3.816 2.518-5.35 7.924-1.07 3.77-1.731 7.886-1.731 9.54 0 3.267 2.473 5.995 5.736 6.593v11.764h-8.784V23.958a4.216 4.216 0 002.868-3.988V14.24c0-.742-.601-1.344-1.344-1.344h-1.524v-1.611h2.958a1.344 1.344 0 100-2.687h-8.605a1.344 1.344 0 100 2.687H58.8v1.611h-1.524c-.742 0-1.344.602-1.344 1.344v5.731a4.216 4.216 0 002.868 3.988v33.355h-4.7l-.914-4.477h1.222a1.344 1.344 0 100-2.687h-2.958v-3.044h1.524a1.344 1.344 0 100-2.687h-1.524v-1.612h1.524a1.344 1.344 0 100-2.687H27.159a1.344 1.344 0 100 2.687h1.524v1.612h-1.524a1.344 1.344 0 100 2.687h1.524v3.044h-2.958a1.344 1.344 0 100 2.687h1.222l-.914 4.477H15.596V44.157c5.645-.667 10.039-5.475 10.039-11.291 0-10.091-9.749-31.195-10.164-32.088a1.344 1.344 0 00-2.439 0c-.415.893-10.164 21.997-10.164 32.088 0 5.816 4.394 10.624 10.04 11.29v13.157H1.343a1.344 1.344 0 100 2.687h80.312a1.344 1.344 0 100-2.687zM67.225 38.955c0-1.198.526-4.782 1.515-8.396 1.438-5.258 2.646-6.223 2.877-6.363.23.14 1.438 1.105 2.876 6.363.99 3.614 1.516 7.198 1.516 8.396 0 1.792-1.282 3.314-3.048 3.836V40.03a1.344 1.344 0 00-2.689 0v2.761c-1.766-.522-3.047-2.044-3.047-3.836zM58.62 15.582h3.047v4.388a1.525 1.525 0 01-3.047 0v-4.388zM5.557 32.866c0-7.456 6.045-22.143 8.695-28.223 2.65 6.08 8.694 20.767 8.694 28.223 0 4.333-3.192 7.934-7.35 8.582v-8.026l3.909-3.905a1.342 1.342 0 000-1.9 1.345 1.345 0 00-1.902 0l-2.007 2.006v-2.489a1.344 1.344 0 00-2.689 0v6.787L10.9 31.916a1.345 1.345 0 00-1.901 0 1.342 1.342 0 000 1.9l3.908 3.905v3.727c-4.158-.648-7.35-4.25-7.35-8.582zm25.815 9.94H48.76v1.612H31.372v-1.612zm0 4.299H48.76v3.044H31.372v-3.044zm-1.681 5.73h20.75l.913 4.478H28.778l.913-4.477z"/></svg>
